_includes/logo.svg

<svg xmlns="http://www.w3.org/2000/svg" viewBox="0 0 236 30">
    <path d="M0 0H10V10H20V0H30V30H20V20H10V30H0V0Z"/>
    <path fill-rule="evenodd" clip-rule="evenodd" d="M50 30C52.9667 30 55.8668 29.1203 58.3336 27.4721C60.8003 25.8238 62.7229 23.4812 63.8582 20.7403C64.9935 17.9994 65.2906 14.9834 64.7118 12.0737C64.133 9.16394 62.7044 6.49119 60.6066 4.3934C58.5088 2.29562 55.8361 0.867006 52.9264 0.288228C50.0166 -0.290551 47.0006 0.00649929 44.2598 1.14181C41.5189 2.27713 39.1762 4.19972 37.528 6.66645C35.8797 9.13319 35 12.0333 35 15C35 18.9783 36.5804 22.7936 39.3934 25.6066C42.2064 28.4197 46.0218 30 50 30ZM50 20C50.9889 20 51.9556 19.7068 52.7779 19.1574C53.6001 18.6079 54.241 17.8271 54.6194 16.9134C54.9978 15.9998 55.0969 14.9945 54.9039 14.0246C54.711 13.0547 54.2348 12.1637 53.5355 11.4645C52.8363 10.7652 51.9454 10.289 50.9755 10.0961C50.0055 9.90315 49.0002 10.0022 48.0866 10.3806C47.173 10.759 46.3921 11.3999 45.8427 12.2222C45.2932 13.0444 45 14.0111 45 15C45 16.3261 45.5268 17.5979 46.4645 18.5355C47.4021 19.4732 48.6739 20 50 20Z"/>
    <path fill-rule="evenodd" clip-rule="evenodd" d="M93.4162 3.29172C95.0792 5.13025 96 7.52094 96 10C95.9992 11.6529 95.5886 13.2799 94.8051 14.7353C94.0215 16.1907 92.8894 17.4292 91.51 18.34L96 30H86L82.15 20H80V30H70V0H87V0.05C89.4666 0.297906 91.7532 1.45319 93.4162 3.29172ZM80 12H84C84.5304 12 85.0391 11.7893 85.4142 11.4142C85.7893 11.0391 86 10.5304 86 10C86 9.46957 85.7893 8.96086 85.4142 8.58579C85.0391 8.21071 84.5304 8 84 8H80V12Z"/>
    <path fill-rule="evenodd" clip-rule="evenodd" d="M116 30C118.967 30 121.867 29.1203 124.334 27.4721C126.8 25.8238 128.723 23.4812 129.858 20.7403C130.994 17.9994 131.291 14.9834 130.712 12.0737C130.133 9.16394 128.704 6.49119 126.607 4.3934C124.509 2.29562 121.836 0.867006 118.926 0.288228C116.017 -0.290551 113.001 0.00649929 110.26 1.14181C107.519 2.27713 105.176 4.19972 103.528 6.66645C101.88 9.13319 101 12.0333 101 15C101 18.9783 102.58 22.7936 105.393 25.6066C108.206 28.4197 112.022 30 116 30ZM116 20C116.989 20 117.956 19.7068 118.778 19.1574C119.6 18.6079 120.241 17.8271 120.619 16.9134C120.998 15.9998 121.097 14.9945 120.904 14.0246C120.711 13.0547 120.235 12.1637 119.536 11.4645C118.836 10.7652 117.945 10.289 116.975 10.0961C116.006 9.90315 115 10.0022 114.087 10.3806C113.173 10.759 112.392 11.3999 111.843 12.2222C111.293 13.0444 111 14.0111 111 15C111 16.3261 111.527 17.5979 112.464 18.5355C113.402 19.4732 114.674 20 116 20Z"/>
    <path d="M151 8L136 0V30H146V17L151 20L156 17V30H166V0L151 8Z"/>
    <path fill-rule="evenodd" clip-rule="evenodd" d="M182 0H190L201 30H191L190 28H182L181 30H171L182 0ZM186 17L188 20.93H184L186 17Z"/>
    <path d="M216 0H206V30H216V16L226 30H236V0H226V14L216 0Z"/>
</svg>

<svg xmlns="http://www.w3.org/2000/svg" viewBox="0 0 236 30">
    <path d="M0 0h10v10h10V0h10v30H20V20H10v10H0V0z"/>
    <path fill-rule="evenodd" d="M50 30a15 15 0 100-30 15 15 0 000 30zm0-10a5 5 0 100-10 5 5 0 000 10zM93.4 3.3a10 10 0 01-1.9 15L96 30H86l-3.8-10H80v10H70V0h17a10 10 0 016.4 3.3zM80 12h4a2 2 0 000-4h-4v4zM116 30a15 15 0 100-30 15 15 0 000 30zm0-10a5 5 0 100-10 5 5 0 000 10z" clip-rule="evenodd"/>
    <path d="M151 8l-15-8v30h10V17l5 3 5-3v13h10V0l-15 8z"/>
    <path fill-rule="evenodd" d="M182 0h8l11 30h-10l-1-2h-8l-1 2h-10l11-30zm4 17l2 4h-4l2-4z" clip-rule="evenodd"/>
    <path d="M216 0h-10v30h10V16l10 14h10V0h-10v14L216 0z"/>
</svg>
